austria/municipalities/41724.svg

<?xml version="1.0" encoding="UTF-8"?>
<!DOCTYPE svg PUBLIC "-//W3C//DTD SVG 1.1//EN" "http://www.w3.org/Graphics/SVG/1.1/DTD/svg11.dtd">
<svg xmlns="http://www.w3.org/2000/svg" version="1.1" width="166px" height="207px" style="shape-rendering:geometricPrecision; text-rendering:geometricPrecision; image-rendering:optimizeQuality; fill-rule:evenodd; clip-rule:evenodd" xmlns:xlink="http://www.w3.org/1999/xlink">
<g><path style="opacity:1" fill="#000000" d="M -0.5,-0.5 C 54.8333,-0.5 110.167,-0.5 165.5,-0.5C 165.5,44.8333 165.5,90.1667 165.5,135.5C 160.391,165.452 144.058,186.952 116.5,200C 109.484,202.508 102.484,204.675 95.5,206.5C 86.8333,206.5 78.1667,206.5 69.5,206.5C 30.2166,197.885 6.88331,173.885 -0.5,134.5C -0.5,89.5 -0.5,44.5 -0.5,-0.5 Z"/></g>
<g><path style="opacity:1" fill="#002b72" d="M 3.5,3.5 C 29.5,3.5 55.5,3.5 81.5,3.5C 81.5,41.5 81.5,79.5 81.5,117.5C 68.3166,118.499 59.4832,125.165 55,137.5C 39.0279,126.346 25.3612,128.679 14,144.5C 12.1307,149.318 11.1307,154.318 11,159.5C 8.04885,152.362 5.71552,145.028 4,137.5C 3.50001,92.8346 3.33334,48.1679 3.5,3.5 Z"/></g>
<g><path style="opacity:1" fill="#fefffe" d="M 83.5,3.5 C 96.5043,3.33344 109.504,3.50011 122.5,4C 109.667,16.8333 96.8333,29.6667 84,42.5C 83.5001,29.5043 83.3334,16.5043 83.5,3.5 Z"/></g>
<g><path style="opacity:1" fill="#e10a15" d="M 125.5,3.5 C 136.838,3.33348 148.172,3.50014 159.5,4C 134.333,29.1667 109.167,54.3333 84,79.5C 83.1675,68.152 83.3342,56.8187 84.5,45.5C 98.4381,31.7116 112.105,17.7116 125.5,3.5 Z"/></g>
<g><path style="opacity:1" fill="#fefffe" d="M 160.5,5.5 C 161.659,16.6591 161.826,27.9924 161,39.5C 135.626,65.041 110.126,90.3743 84.5,115.5C 83.1667,104.5 83.1667,93.5 84.5,82.5C 110.069,56.9934 135.402,31.3268 160.5,5.5 Z"/></g>
<g><path style="opacity:1" fill="#000000" d="M 53.5,22.5 C 60.9597,22.2327 68.293,23.066 75.5,25C 49.9364,33.2948 40.4364,50.4615 47,76.5C 52.56,89.0557 62.06,96.889 75.5,100C 56.0046,105.831 39.8379,100.998 27,85.5C 15.6143,65.4274 18.1143,47.2607 34.5,31C 40.4411,27.0243 46.7744,24.1909 53.5,22.5 Z"/></g>
<g><path style="opacity:1" fill="#fea700" d="M 55.5,24.5 C 59.2733,24.2633 62.9399,24.7633 66.5,26C 47.7477,35.3335 39.9144,50.5002 43,71.5C 46.2632,85.0935 54.4299,94.2601 67.5,99C 44.793,101.603 29.9597,92.1032 23,70.5C 20.4623,45.5601 31.2956,30.2268 55.5,24.5 Z"/></g>
<g><path style="opacity:1" fill="#e10a15" d="M 160.5,42.5 C 161.658,52.3247 161.825,62.3247 161,72.5C 142.626,91.2079 123.959,109.541 105,127.5C 99.7892,122.283 93.6226,118.783 86.5,117C 111.368,92.2986 136.035,67.4653 160.5,42.5 Z"/></g>
<g><path style="opacity:1" fill="#fefffe" d="M 159.5,76.5 C 160.828,81.2876 161.495,86.4543 161.5,92C 161.167,97.1667 160.833,102.333 160.5,107.5C 152.652,115.515 144.652,123.348 136.5,131C 126.566,128.859 117.733,131.025 110,137.5C 109.235,134.804 108.068,132.304 106.5,130C 124.417,112.251 142.083,94.4174 159.5,76.5 Z"/></g>
<g><path style="opacity:1" fill="#e10a15" d="M 160.5,110.5 C 162.12,122.781 161.62,135.114 159,147.5C 157.591,151.316 155.924,154.983 154,158.5C 153.363,147.044 148.197,138.377 138.5,132.5C 146.188,125.479 153.521,118.146 160.5,110.5 Z"/></g>
<g><path style="opacity:1" fill="#fea700" d="M 77.5,119.5 C 93.7961,119.231 104.296,126.898 109,142.5C 123.671,128.651 137.004,129.984 149,146.5C 150.351,152.072 150.851,157.738 150.5,163.5C 146.854,164.283 143.188,164.45 139.5,164C 135.57,161.412 131.236,159.912 126.5,159.5C 120.905,161.13 115.239,162.463 109.5,163.5C 101.994,161.113 94.3277,159.113 86.5,157.5C 78.7235,159.56 71.0569,161.893 63.5,164.5C 56.5024,162.096 49.3357,160.096 42,158.5C 35.5271,160.323 29.0271,161.989 22.5,163.5C 14.559,163.315 11.7256,159.315 14,151.5C 17.2195,140.784 24.3862,134.451 35.5,132.5C 43.8622,132.765 50.6956,136.098 56,142.5C 57.4973,137.501 59.6639,132.835 62.5,128.5C 67.1425,124.688 72.1425,121.688 77.5,119.5 Z"/></g>
<g><path style="opacity:1" fill="#fefffe" d="M -0.5,134.5 C 6.88331,173.885 30.2166,197.885 69.5,206.5C 46.1667,206.5 22.8333,206.5 -0.5,206.5C -0.5,182.5 -0.5,158.5 -0.5,134.5 Z"/></g>
<g><path style="opacity:1" fill="#fefffe" d="M 165.5,135.5 C 165.5,159.167 165.5,182.833 165.5,206.5C 142.167,206.5 118.833,206.5 95.5,206.5C 102.484,204.675 109.484,202.508 116.5,200C 144.058,186.952 160.391,165.452 165.5,135.5 Z"/></g>
<g><path style="opacity:1" fill="#002b72" d="M 85.5,159.5 C 88.456,160.137 91.456,160.637 94.5,161C 98.9469,163.805 103.78,165.638 109,166.5C 115.168,165.822 121.002,164.156 126.5,161.5C 133.788,164.905 141.455,166.905 149.5,167.5C 147.689,172.492 144.189,174.826 139,174.5C 134.12,174.16 129.286,173.493 124.5,172.5C 119.676,174.414 114.676,175.414 109.5,175.5C 101.833,174.167 94.1667,172.833 86.5,171.5C 78.3756,172.211 70.3756,173.545 62.5,175.5C 56.1126,174.142 49.7793,172.808 43.5,171.5C 36.6515,171.878 29.9849,173.212 23.5,175.5C 21.2723,174.781 19.439,173.448 18,171.5C 16.6233,169.246 15.1233,167.08 13.5,165C 18.7563,165.56 24.0897,165.56 29.5,165C 33.4661,163.133 37.6327,161.967 42,161.5C 49.5331,163.348 57.0331,165.348 64.5,167.5C 71.5288,164.778 78.5288,162.111 85.5,159.5 Z"/></g>
<g><path style="opacity:1" fill="#fea700" d="M 39.5,173.5 C 42.5184,173.335 45.5184,173.502 48.5,174C 52.8882,176.36 57.5548,177.86 62.5,178.5C 70.2216,176.389 78.0549,174.722 86,173.5C 93.9537,175.373 101.954,177.04 110,178.5C 115.143,177.793 120.143,176.793 125,175.5C 130.274,175.943 135.441,176.943 140.5,178.5C 120.64,198.577 96.64,206.41 68.5,202C 51.1574,199.153 36.4907,191.32 24.5,178.5C 29.4529,176.353 34.4529,174.687 39.5,173.5 Z"/></g>
</svg>

<svg xmlns="http://www.w3.org/2000/svg" width="166" height="207" style="shape-rendering:geometricPrecision;text-rendering:geometricPrecision;image-rendering:optimizeQuality;fill-rule:evenodd;clip-rule:evenodd"><path style="opacity:1" d="M-.5-.5h166v136c-5.109 29.952-21.442 51.452-49 64.5a250.624 250.624 0 0 1-21 6.5h-26c-39.283-8.615-62.617-32.615-70-72V-.5z"/><path style="opacity:1" fill="#002b72" d="M3.5 3.5h78v114c-13.183.999-22.017 7.665-26.5 20-15.972-11.154-29.639-8.821-41 7a44.246 44.246 0 0 0-3 15 137.362 137.362 0 0 1-7-22c-.5-44.665-.667-89.332-.5-134z"/><path style="opacity:1" fill="#fefffe" d="M83.5 3.5c13.004-.167 26.004 0 39 .5L84 42.5a760.877 760.877 0 0 1-.5-39z"/><path style="opacity:1" fill="#e10a15" d="M125.5 3.5c11.338-.167 22.672 0 34 .5L84 79.5a193.226 193.226 0 0 1 .5-34 1678.365 1678.365 0 0 0 41-42z"/><path style="opacity:1" fill="#fefffe" d="M160.5 5.5c1.159 11.16 1.326 22.492.5 34a8208.152 8208.152 0 0 1-76.5 76c-1.333-11-1.333-22 0-33a6965.524 6965.524 0 0 0 76-77z"/><path style="opacity:1" d="M53.5 22.5a74.168 74.168 0 0 1 22 2.5C49.936 33.295 40.436 50.462 47 76.5c5.56 12.556 15.06 20.389 28.5 23.5-19.495 5.831-35.662.998-48.5-14.5-11.386-20.073-8.886-38.24 7.5-54.5 5.941-3.976 12.274-6.81 19-8.5z"/><path style="opacity:1" fill="#fea700" d="M55.5 24.5c3.773-.237 7.44.263 11 1.5C47.748 35.334 39.914 50.5 43 71.5 46.263 85.094 54.43 94.26 67.5 99c-22.707 2.603-37.54-6.897-44.5-28.5-2.538-24.94 8.296-40.273 32.5-46z"/><path style="opacity:1" fill="#e10a15" d="M160.5 42.5c1.158 9.825 1.325 19.825.5 30a2175.173 2175.173 0 0 1-56 55c-5.21-5.217-11.377-8.717-18.5-10.5a7788.667 7788.667 0 0 0 74-74.5z"/><path style="opacity:1" fill="#fefffe" d="M159.5 76.5c1.328 4.788 1.995 9.954 2 15.5l-1 15.5a796.785 796.785 0 0 1-24 23.5c-9.934-2.141-18.767.025-26.5 6.5a25.724 25.724 0 0 0-3.5-7.5 3990.597 3990.597 0 0 0 53-53.5z"/><path style="opacity:1" fill="#e10a15" d="M160.5 110.5c1.62 12.281 1.12 24.614-1.5 37a82.239 82.239 0 0 1-5 11c-.637-11.456-5.803-20.123-15.5-26a342.245 342.245 0 0 0 22-22z"/><path style="opacity:1" fill="#fea700" d="M77.5 119.5c16.296-.269 26.796 7.398 31.5 23 14.671-13.849 28.004-12.516 40 4a57.025 57.025 0 0 1 1.5 17c-3.646.783-7.312.95-11 .5-3.93-2.588-8.264-4.088-13-4.5a166.722 166.722 0 0 1-17 4 227.022 227.022 0 0 0-23-6 328.198 328.198 0 0 0-23 7 191.249 191.249 0 0 0-21.5-6 427.964 427.964 0 0 1-19.5 5c-7.941-.185-10.774-4.185-8.5-12 3.22-10.716 10.386-17.049 21.5-19 8.362.265 15.196 3.598 20.5 10a53.44 53.44 0 0 1 6.5-14c4.642-3.812 9.642-6.812 15-9z"/><path style="opacity:1" fill="#fefffe" d="M-.5 134.5c7.383 39.385 30.717 63.385 70 72h-70v-72zM165.5 135.5v71h-70a250.624 250.624 0 0 0 21-6.5c27.558-13.048 43.891-34.548 49-64.5z"/><path style="opacity:1" fill="#002b72" d="M85.5 159.5a97.51 97.51 0 0 0 9 1.5 38.733 38.733 0 0 0 14.5 5.5c6.168-.678 12.002-2.344 17.5-5a65.263 65.263 0 0 0 23 6c-1.811 4.992-5.311 7.326-10.5 7-4.88-.34-9.714-1.007-14.5-2a42.25 42.25 0 0 1-15 3l-23-4a155.866 155.866 0 0 0-24 4 4713.985 4713.985 0 0 0-19-4 71.687 71.687 0 0 0-20 4c-2.228-.719-4.061-2.052-5.5-4a69.088 69.088 0 0 0-4.5-6.5c5.256.56 10.59.56 16 0a38.84 38.84 0 0 1 12.5-3.5 581.636 581.636 0 0 1 22.5 6 2022.679 2022.679 0 0 1 21-8z"/><path style="opacity:1" fill="#fea700" d="M39.5 173.5a40.911 40.911 0 0 1 9 .5 40.21 40.21 0 0 0 14 4.5 210.222 210.222 0 0 1 23.5-5 473.52 473.52 0 0 0 24 5 123.78 123.78 0 0 0 15-3 73.442 73.442 0 0 1 15.5 3c-19.86 20.077-43.86 27.91-72 23.5-17.343-2.847-32.01-10.68-44-23.5 4.953-2.147 9.953-3.813 15-5z"/></svg>
